X: 23853
T: Living Bridge, The
R: jig
M: 6/8
K: Dmajor
DFG AGA|BAB dcd|ecA ABc|dcd BAF|
DFA GBd|BAB dcd|ede fdA|FAd e2d:|
e2e ede|fdB A2A|g2g gfg|afe def|
gbg faf|ede fdA|DFA GBd|Adf e2d|
e2e ecB|Ace g2g|f2f gfg|afe def|
gbg faf|ede fdA|DFA GBd|Adf e2d||

